X:1
T:Colm Mac Lochlainn's
C:Reel composed by Davy Rogers
L:1/8
Q:185
K:G
M:4/4
 dc |: Bd BG cd BG | (3BcB AG AB cd | ef ge ed BG | cA AG A2 GA | Bd BG cd BG | \
 (3BcB AG AB cd | ef ge ed BG |1 (3ABA GF G2 dc :|2 (3ABA GF G2 df |: ge (3efe cd ec | \
 d2 ce de fd | ge (3efe dB GB | cA AG AB df | ge (3efe cd ec | d2 ce de fd | ef ge ed BG | \
|1 (3ABA GF G2 df :|2 (3ABA GF G2 | \



